assets/icons/google_play.svg

<svg height="23.02" viewBox="0 0 21.26 23.02" width="21.26" xmlns="http://www.w3.org/2000/svg" xmlns:xlink="http://www.w3.org/1999/xlink"><clipPath id="a" transform="translate(0 .02)"><path d="m0 0h21.25v23h-21.25z"/></clipPath><g clip-path="url(#a)"><g clip-path="url(#a)"><path d="m15.68 15.05 4.93-2.72c.55-.32 1.14-1.05 0-1.73l-4.93-2.73-3.53 3.63z" fill="#ffe300" transform="translate(0 .02)"/><path d="m12.15 11.5-11.29 11.5a1.53 1.53 0 0 0 .91-.23l13.91-7.72z" fill="#ff4e54" transform="translate(0 .02)"/><path d="m12.15 11.5 3.53-3.63-13.91-7.68a1.36 1.36 0 0 0 -.92-.19z" fill="#00f085" transform="translate(0 .02)"/><path d="m12.15 11.5-11.3-11.5a1.26 1.26 0 0 0 -.85 1.36v20.26c0 .77.3 1.32.86 1.37l11.29-11.5z" fill="#00e0ff" transform="translate(0 .02)"/></g></g></svg>

<svg xmlns="http://www.w3.org/2000/svg" xmlns:xlink="http://www.w3.org/1999/xlink" width="21.26" height="23.02" viewBox="0 0 21.26 23.02"><defs><clipPath id="a" transform="translate(0 0.02)"><rect width="21.25" height="23" fill="none"/></clipPath></defs><g clip-path="url(#a)"><g clip-path="url(#a)"><path d="M15.68,15.05l4.93-2.72c.55-.32,1.14-1.05,0-1.73L15.68,7.87,12.15,11.5Z" transform="translate(0 0.02)" fill="#ffe300"/><path d="M12.15,11.5.86,23a1.53,1.53,0,0,0,.91-.23l13.91-7.72Z" transform="translate(0 0.02)" fill="#ff4e54"/><path d="M12.15,11.5l3.53-3.63L1.77.19A1.36,1.36,0,0,0,.85,0Z" transform="translate(0 0.02)" fill="#00f085"/><path d="M12.15,11.5.85,0A1.26,1.26,0,0,0,0,1.36V21.62c0,.77.3,1.32.86,1.37l11.29-11.5Z" transform="translate(0 0.02)" fill="#00e0ff"/></g></g></svg>
